;FLAVOR:RepRap
;TIME:616
;Filament used: 0.109193m
;Layer height: 0.1
;Generated with Cura_SteamEngine 2.6.2
M190 S60
M104 S200
M109 S200
G21 ;metric values
G90 ;absolute positioning
M82 ;set extruder to absolute mode
M107 ;start with the fan off
G28 X0 Y0 ;move X/Y to min endstops
G28 Z0 ;move Z to min endstops
G1 Z15.0 F9000 ;move the platform down 15mm
G92 E0 ;zero the extruded length
G1 F200 E3 ;extrude 3mm of feed stock
G92 E0 ;zero the extruded length again
G1 F9000
;Put printing message on LCD screen
M117 Printing...
;LAYER_COUNT:98
;LAYER:0
M107
G0 F3600 X73.684 Y104.967 Z0.3
;TYPE:SKIRT
G1 F1800 X74.332 Y104.516 E0.01485
G1 X75.023 Y104.132 E0.02972
G1 X75.748 Y103.82 E0.04457
G1 X76.501 Y103.583 E0.05942
G1 X77.275 Y103.424 E0.07428
G1 X78.06 Y103.343 E0.08913
G1 X78.462 Y103.333 E0.09669
G1 X88.462 Y103.333 E0.2848
G1 X89.251 Y103.373 E0.29966
G1 X90.031 Y103.492 E0.3145
G1 X90.796 Y103.69 E0.32936
G1 X91.536 Y103.964 E0.34421
G1 X92.245 Y104.312 E0.35906
G1 X92.916 Y104.73 E0.37393
G1 X93.54 Y105.213 E0.38878
G1 X94.113 Y105.756 E0.40363
G1 X94.628 Y106.355 E0.41848
G1 X95.079 Y107.003 E0.43334
G1 X95.463 Y107.694 E0.44821
G1 X95.775 Y108.419 E0.46305
G1 X96.012 Y109.172 E0.4779
G1 X96.171 Y109.946 E0.49277
G1 X96.252 Y110.731 E0.50761
G1 X96.262 Y111.133 E0.51517
G1 X96.262 Y121.133 E0.70328
G1 X96.222 Y121.922 E0.71814
G1 X96.103 Y122.702 E0.73298
G1 X95.905 Y123.467 E0.74785
G1 X95.631 Y124.207 E0.76269
G1 X95.283 Y124.916 E0.77755
G1 X94.865 Y125.587 E0.79242
G1 X94.382 Y126.211 E0.80726
G1 X93.839 Y126.784 E0.82211
G1 X93.24 Y127.299 E0.83697
G1 X92.592 Y127.75 E0.85182
G1 X91.901 Y128.134 E0.86669
G1 X91.176 Y128.446 E0.88154
G1 X90.423 Y128.683 E0.89639
G1 X89.649 Y128.842 E0.91125
G1 X88.864 Y128.923 E0.92609
G1 X88.462 Y128.933 E0.93366
G1 X78.462 Y128.933 E1.12176
G1 X77.673 Y128.893 E1.13663
G1 X76.893 Y128.774 E1.15147
G1 X76.128 Y128.576 E1.16633
G1 X75.388 Y128.302 E1.18117
G1 X74.679 Y127.954 E1.19603
G1 X74.008 Y127.536 E1.2109
G1 X73.384 Y127.053 E1.22575
G1 X72.811 Y126.51 E1.24059
G1 X72.296 Y125.911 E1.25545
G1 X71.845 Y125.263 E1.27031
G1 X71.461 Y124.572 E1.28518
G1 X71.149 Y123.847 E1.30002
G1 X70.912 Y123.094 E1.31487
G1 X70.753 Y122.32 E1.32974
G1 X70.672 Y121.535 E1.34458
G1 X70.662 Y121.133 E1.35214
G1 X70.662 Y111.133 E1.54025
G1 X70.702 Y110.344 E1.55511
G1 X70.821 Y109.564 E1.56995
G1 X71.019 Y108.799 E1.58482
G1 X71.293 Y108.059 E1.59966
G1 X71.641 Y107.35 E1.61452
G1 X72.059 Y106.679 E1.62939
G1 X72.542 Y106.055 E1.64423
G1 X73.085 Y105.482 E1.65908
G1 X73.684 Y104.967 E1.67394
G0 F3600 X74.073 Y105.175
G1 F1800 X74.715 Y104.752 E1.6884
G1 X75.398 Y104.397 E1.70288
G1 X76.113 Y104.116 E1.71733
G1 X76.855 Y103.91 E1.73182
G1 X77.613 Y103.782 E1.74628
G1 X78.462 Y103.733 E1.76227
G1 X88.462 Y103.733 E1.95038
G1 X89.23 Y103.773 E1.96485
G1 X89.99 Y103.892 E1.97932
G1 X90.733 Y104.09 E1.99378
G1 X91.452 Y104.364 E2.00825
G1 X92.138 Y104.711 E2.02271
G1 X92.785 Y105.127 E2.03718
G1 X93.385 Y105.608 E2.05165
G1 X93.932 Y106.149 E2.06612
G1 X94.42 Y106.744 E2.0806
G1 X94.843 Y107.386 E2.09506
G1 X95.198 Y108.069 E2.10954
G1 X95.479 Y108.784 E2.12399
G1 X95.685 Y109.526 E2.13847
G1 X95.813 Y110.284 E2.15293
G1 X95.862 Y111.133 E2.16893
G1 X95.862 Y121.133 E2.35704
G1 X95.822 Y121.901 E2.3715
G1 X95.703 Y122.661 E2.38597
G1 X95.505 Y123.404 E2.40044
G1 X95.231 Y124.123 E2.41491
G1 X94.884 Y124.809 E2.42937
G1 X94.468 Y125.456 E2.44384
G1 X93.987 Y126.056 E2.4583
G1 X93.446 Y126.603 E2.47278
G1 X92.851 Y127.091 E2.48725
G1 X92.209 Y127.514 E2.50171
G1 X91.526 Y127.869 E2.51619
G1 X90.811 Y128.15 E2.53064
G1 X90.069 Y128.356 E2.54513
G1 X89.311 Y128.484 E2.55959
G1 X88.462 Y128.533 E2.57559
G1 X78.462 Y128.533 E2.76369
G1 X77.694 Y128.493 E2.77816
G1 X76.934 Y128.374 E2.79263
G1 X76.191 Y128.176 E2.80709
G1 X75.472 Y127.902 E2.82157
G1 X74.786 Y127.555 E2.83603
G1 X74.139 Y127.139 E2.8505
G1 X73.539 Y126.658 E2.86496
G1 X72.992 Y126.117 E2.87943
G1 X72.504 Y125.522 E2.89391
G1 X72.081 Y124.88 E2.90837
G1 X71.726 Y124.197 E2.92285
G1 X71.445 Y123.482 E2.9373
G1 X71.239 Y122.74 E2.95179
G1 X71.111 Y121.982 E2.96625
G1 X71.062 Y121.133 E2.98224
G1 X71.062 Y111.133 E3.17035
G1 X71.102 Y110.365 E3.18481
G1 X71.221 Y109.605 E3.19929
G1 X71.419 Y108.862 E3.21375
G1 X71.693 Y108.143 E3.22822
G1 X72.04 Y107.457 E3.24268
G1 X72.456 Y106.81 E3.25715
G1 X72.937 Y106.21 E3.27162
G1 X73.478 Y105.663 E3.28609
G1 X74.073 Y105.175 E3.30056
G0 F3600 X74.46 Y105.39
G1 F1800 X75.096 Y104.995 E3.31465
G1 X75.77 Y104.671 E3.32872
G1 X76.475 Y104.421 E3.34279
G1 X77.203 Y104.247 E3.35687
G1 X77.945 Y104.152 E3.37094
G1 X78.462 Y104.133 E3.38067
G1 X88.462 Y104.133 E3.56877
G1 X89.209 Y104.173 E3.58285
G1 X89.947 Y104.292 E3.59691
G1 X90.669 Y104.49 E3.61099
G1 X91.365 Y104.763 E3.62505
G1 X92.028 Y105.11 E3.63913
G1 X92.651 Y105.525 E3.65321
G1 X93.225 Y106.004 E3.66727
G1 X93.746 Y106.541 E3.68135
G1 X94.205 Y107.131 E3.69541
G1 X94.6 Y107.767 E3.70949
G1 X94.924 Y108.441 E3.72356
G1 X95.174 Y109.146 E3.73763
G1 X95.348 Y109.874 E3.75171
G1 X95.443 Y110.616 E3.76578
G1 X95.462 Y111.133 E3.77551
G1 X95.462 Y121.133 E3.96362
G1 X95.422 Y121.88 E3.97769
G1 X95.303 Y122.618 E3.99175
G1 X95.105 Y123.34 E4.00583
G1 X94.832 Y124.036 E4.0199
G1 X94.485 Y124.699 E4.03397
G1 X94.07 Y125.322 E4.04805
G1 X93.591 Y125.896 E4.06212
G1 X93.054 Y126.417 E4.07619
G1 X92.464 Y126.876 E4.09025
G1 X91.828 Y127.271 E4.10434
G1 X91.154 Y127.595 E4.1184
G1 X90.449 Y127.845 E4.13247
G1 X89.721 Y128.019 E4.14655
G1 X88.979 Y128.114 E4.16062
G1 X88.462 Y128.133 E4.17036
G1 X78.462 Y128.133 E4.35846
G1 X77.715 Y128.093 E4.37253
G1 X76.977 Y127.974 E4.38659
G1 X76.255 Y127.776 E4.40068
G1 X75.559 Y127.503 E4.41474
G1 X74.896 Y127.156 E4.42882
G1 X74.273 Y126.741 E4.4429
G1 X73.699 Y126.262 E4.45696
G1 X73.178 Y125.725 E4.47103
G1 X72.719 Y125.135 E4.4851
G1 X72.324 Y124.499 E4.49918
G1 X72 Y123.825 E4.51325
G1 X71.75 Y123.12 E4.52732
G1 X71.576 Y122.392 E4.5414
G1 X71.481 Y121.65 E4.55547
G1 X71.462 Y121.133 E4.5652
G1 X71.462 Y111.133 E4.75331
G1 X71.502 Y110.386 E4.76738
G1 X71.621 Y109.648 E4.78144
G1 X71.819 Y108.926 E4.79552
G1 X72.092 Y108.23 E4.80958
G1 X72.439 Y107.567 E4.82366
G1 X72.854 Y106.944 E4.83774
G1 X73.333 Y106.37 E4.8518
G1 X73.87 Y105.849 E4.86588
G1 X74.46 Y105.39 E4.87994
G0 F3600 X74.846 Y105.612
G1 F1800 X75.475 Y105.248 E4.89361
G1 X76.14 Y104.955 E4.90728
G1 X76.833 Y104.737 E4.92094
G1 X77.545 Y104.597 E4.93459
G1 X78.462 Y104.533 E4.95189
G1 X88.462 Y104.533 E5.13999
G1 X89.187 Y104.573 E5.15365
G1 X89.904 Y104.692 E5.16732
G1 X90.603 Y104.89 E5.18099
G1 X91.276 Y105.163 E5.19465
G1 X91.915 Y105.508 E5.20831
G1 X92.512 Y105.922 E5.22197
G1 X93.06 Y106.398 E5.23563
G1 X93.553 Y106.932 E5.2493
G1 X93.983 Y107.517 E5.26296
G1 X94.347 Y108.146 E5.27663
G1 X94.64 Y108.811 E5.2903
G1 X94.858 Y109.504 E5.30396
G1 X94.998 Y110.216 E5.31761
G1 X95.062 Y111.133 E5.3349
G1 X95.062 Y121.133 E5.52301
G1 X95.022 Y121.858 E5.53667
G1 X94.903 Y122.575 E5.55034
G1 X94.705 Y123.274 E5.564
G1 X94.432 Y123.947 E5.57767
G1 X94.087 Y124.586 E5.59133
G1 X93.673 Y125.183 E5.60499
G1 X93.197 Y125.731 E5.61865
G1 X92.663 Y126.224 E5.63232
G1 X92.078 Y126.654 E5.64597
G1 X91.449 Y127.018 E5.65964
G1 X90.784 Y127.311 E5.67331
G1 X90.091 Y127.529 E5.68698
G1 X89.379 Y127.669 E5.70063
G1 X88.462 Y127.733 E5.71792
G1 X78.462 Y127.733 E5.90602
G1 X77.737 Y127.693 E5.91968
G1 X77.02 Y127.574 E5.93335
G1 X76.321 Y127.376 E5.94702
G1 X75.648 Y127.103 E5.96068
G1 X75.009 Y126.758 E5.97434
G1 X74.412 Y126.344 E5.98801
G1 X73.864 Y125.868 E6.00166
G1 X73.371 Y125.334 E6.01533
G1 X72.941 Y124.749 E6.02899
G1 X72.577 Y124.12 E6.04266
G1 X72.284 Y123.455 E6.05633
G1 X72.066 Y122.762 E6.07
G1 X71.926 Y122.05 E6.08364
G1 X71.862 Y121.133 E6.10094
G1 X71.862 Y111.133 E6.28904
G1 X71.902 Y110.408 E6.3027
G1 X72.021 Y109.691 E6.31637
G1 X72.219 Y108.992 E6.33004
G1 X72.492 Y108.319 E6.3437
G1 X72.837 Y107.68 E6.35736
G1 X73.251 Y107.083 E6.37102
G1 X73.727 Y106.535 E6.38468
G1 X74.261 Y106.042 E6.39835
G1 X74.846 Y105.612 E6.41201
G0 F3600 X75.23 Y105.842
G1 F1800 X75.851 Y105.51 E6.42525
G1 X76.505 Y105.25 E6.43849
G1 X77.185 Y105.066 E6.45174
G1 X77.881 Y104.96 E6.46499
G1 X78.462 Y104.933 E6.47593
G1 X88.462 Y104.933 E6.66403
G1 X89.165 Y104.973 E6.67728
G1 X89.859 Y105.092 E6.69052
G1 X90.534 Y105.29 E6.70375
G1 X91.183 Y105.562 E6.71699
G1 X91.797 Y105.907 E6.73024
G1 X92.368 Y106.318 E6.74347
G1 X92.889 Y106.792 E6.75672
G1 X93.353 Y107.322 E6.76997
G1 X93.753 Y107.901 E6.78321
G1 X94.085 Y108.522 E6.79646
G1 X94.345 Y109.176 E6.8097
G1 X94.529 Y109.856 E6.82295
G1 X94.635 Y110.552 E6.83619
G1 X94.662 Y111.133 E6.84713
G1 X94.662 Y121.133 E7.03524
G1 X94.622 Y121.836 E7.04848
G1 X94.503 Y122.53 E7.06173
G1 X94.305 Y123.205 E7.07496
G1 X94.033 Y123.854 E7.08819
G1 X93.688 Y124.468 E7.10144
G1 X93.277 Y125.039 E7.11468
G1 X92.803 Y125.56 E7.12793
G1 X92.273 Y126.024 E7.14118
G1 X91.694 Y126.424 E7.15441
G1 X91.073 Y126.756 E7.16766
G1 X90.419 Y127.016 E7.1809
G1 X89.739 Y127.2 E7.19415
G1 X89.043 Y127.306 E7.20739
G1 X88.462 Y127.333 E7.21833
G1 X78.462 Y127.333 E7.40644
G1 X77.759 Y127.293 E7.41968
G1 X77.065 Y127.174 E7.43293
G1 X76.39 Y126.976 E7.44616
G1 X75.741 Y126.704 E7.4594
G1 X75.127 Y126.359 E7.47265
G1 X74.556 Y125.948 E7.48588
G1 X74.035 Y125.474 E7.49913
G1 X73.571 Y124.944 E7.51238
G1 X73.171 Y124.365 E7.52562
G1 X72.839 Y123.744 E7.53886
G1 X72.579 Y123.09 E7.5521
G1 X72.395 Y122.41 E7.56535
G1 X72.289 Y121.714 E7.5786
G1 X72.262 Y121.133 E7.58954
G1 X72.262 Y111.133 E7.77764
G1 X72.302 Y110.43 E7.79089
G1 X72.421 Y109.736 E7.80413
G1 X72.619 Y109.061 E7.81737
G1 X72.891 Y108.412 E7.8306
G1 X73.236 Y107.798 E7.84385
G1 X73.647 Y107.227 E7.85708
G1 X74.121 Y106.706 E7.87033
G1 X74.651 Y106.242 E7.88358
G1 X75.23 Y105.842 E7.89682
G0 F3600 X75.612 Y106.081
G1 F1800 X76.224 Y105.782 E7.90963
G1 X76.866 Y105.557 E7.92243
G1 X77.531 Y105.408 E7.93525
G1 X78.462 Y105.333 E7.95282
G1 X88.462 Y105.333 E8.14092
G1 X89.142 Y105.373 E8.15374
G1 X89.812 Y105.492 E8.16654
G1 X90.464 Y105.689 E8.17935
G1 X91.088 Y105.961 E8.19215
G1 X91.676 Y106.305 E8.20497
G1 X92.22 Y106.715 E8.21778
G1 X92.711 Y107.186 E8.23058
G1 X93.145 Y107.711 E8.24339
G1 X93.514 Y108.283 E8.2562
G1 X93.813 Y108.895 E8.26901
G1 X94.038 Y109.537 E8.28181
G1 X94.187 Y110.202 E8.29463
G1 X94.262 Y111.133 E8.3122
G1 X94.262 Y121.133 E8.5003
G1 X94.222 Y121.813 E8.51312
G1 X94.103 Y122.483 E8.52592
G1 X93.906 Y123.135 E8.53873
G1 X93.634 Y123.759 E8.55153
G1 X93.29 Y124.347 E8.56435
G1 X92.88 Y124.891 E8.57716
G1 X92.409 Y125.382 E8.58996
G1 X91.884 Y125.816 E8.60277
G1 X91.312 Y126.185 E8.61558
G1 X90.7 Y126.484 E8.62839
G1 X90.058 Y126.709 E8.64118
G1 X89.393 Y126.858 E8.654
G1 X88.462 Y126.933 E8.67157
G1 X78.462 Y126.933 E8.85968
G1 X77.782 Y126.893 E8.87249
G1 X77.112 Y126.774 E8.88529
G1 X76.46 Y126.577 E8.8981
G1 X75.836 Y126.305 E8.91091
G1 X75.248 Y125.961 E8.92372
G1 X74.704 Y125.551 E8.93654
G1 X74.213 Y125.08 E8.94934
G1 X73.779 Y124.555 E8.96215
G1 X73.41 Y123.983 E8.97495
G1 X73.111 Y123.371 E8.98777
G1 X72.886 Y122.729 E9.00056
G1 X72.737 Y122.064 E9.01338
G1 X72.662 Y121.133 E9.03095
G1 X72.662 Y111.133 E9.21906
G1 X72.702 Y110.453 E9.23187
G1 X72.821 Y109.783 E9.24467
G1 X73.018 Y109.131 E9.25748
G1 X73.29 Y108.507 E9.27029
G1 X73.634 Y107.919 E9.2831
G1 X74.044 Y107.375 E9.29591
G1 X74.515 Y106.884 E9.30871
G1 X75.04 Y106.45 E9.32153
G1 X75.612 Y106.081 E9.33433
G0 F3600 X75.991 Y106.331
G1 F1800 X76.593 Y106.067 E9.3467
G1 X77.222 Y105.877 E9.35906
G1 X77.869 Y105.766 E9.3714
G1 X78.462 Y105.733 E9.38258
G1 X88.462 Y105.733 E9.57068
G1 X89.118 Y105.773 E9.58304
G1 X89.764 Y105.892 E9.5954
G1 X90.391 Y106.089 E9.60776
G1 X90.989 Y106.361 E9.62012
G1 X91.55 Y106.703 E9.63248
G1 X92.065 Y107.111 E9.64484
G1 X92.527 Y107.578 E9.65719
G1 X92.928 Y108.098 E9.66955
G1 X93.264 Y108.662 E9.6819
G1 X93.528 Y109.264 E9.69426
G1 X93.718 Y109.893 E9.70662
G1 X93.829 Y110.54 E9.71897
G1 X93.862 Y111.133 E9.73014
G1 X93.862 Y121.133 E9.91825
G1 X93.822 Y121.789 E9.93061
G1 X93.703 Y122.435 E9.94297
G1 X93.506 Y123.062 E9.95533
G1 X93.234 Y123.66 E9.96769
G1 X92.892 Y124.221 E9.98004
G1 X92.484 Y124.736 E9.9924
G1 X92.017 Y125.198 E10.00476
G1 X91.497 Y125.599 E10.01711
G1 X90.933 Y125.935 E10.02946
G1 X90.331 Y126.199 E10.04183
G1 X89.702 Y126.389 E10.05419
G1 X89.055 Y126.5 E10.06654
G1 X88.462 Y126.533 E10.07771
G1 X78.462 Y126.533 E10.26581
G1 X77.806 Y126.493 E10.27818
G1 X77.16 Y126.374 E10.29053
G1 X76.533 Y126.177 E10.30289
G1 X75.935 Y125.905 E10.31525
G1 X75.374 Y125.563 E10.32761
G1 X74.859 Y125.155 E10.33997
G1 X74.397 Y124.688 E10.35233
G1 X73.996 Y124.168 E10.36468
G1 X73.66 Y123.604 E10.37703
G1 X73.396 Y123.002 E10.38939
G1 X73.206 Y122.373 E10.40175
G1 X73.095 Y121.726 E10.4141
G1 X73.062 Y121.133 E10.42527
G1 X73.062 Y111.133 E10.61338
G1 X73.102 Y110.477 E10.62574
G1 X73.221 Y109.831 E10.6381
G1 X73.418 Y109.204 E10.65046
G1 X73.69 Y108.606 E10.66282
G1 X74.032 Y108.045 E10.67518
G1 X74.44 Y107.53 E10.68754
G1 X74.907 Y107.068 E10.69989
G1 X75.427 Y106.667 E10.71224
G1 X75.991 Y106.331 E10.72459
G0 F3600 X76.368 Y106.593
G1 F1800 X76.957 Y106.365 E10.73647
G1 X77.571 Y106.213 E10.74837
G1 X78.462 Y106.133 E10.7652
G1 X88.462 Y106.133 E10.95331
G1 X89.093 Y106.173 E10.9652
G1 X89.714 Y106.292 E10.97709
G1 X90.314 Y106.489 E10.98897
G1 X90.886 Y106.76 E11.00088
G1 X91.418 Y107.1 E11.01275
G1 X91.903 Y107.506 E11.02465
G1 X92.333 Y107.969 E11.03654
G1 X92.702 Y108.483 E11.04844
G1 X93.002 Y109.039 E11.06032
G1 X93.23 Y109.628 E11.07221
G1 X93.382 Y110.242 E11.0841
G1 X93.462 Y111.133 E11.10093
G1 X93.462 Y121.133 E11.28904
G1 X93.422 Y121.764 E11.30093
G1 X93.303 Y122.385 E11.31282
G1 X93.106 Y122.985 E11.3247
G1 X92.835 Y123.557 E11.33661
G1 X92.495 Y124.089 E11.34849
G1 X92.089 Y124.574 E11.36038
G1 X91.626 Y125.004 E11.37227
G1 X91.112 Y125.373 E11.38417
G1 X90.556 Y125.673 E11.39606
G1 X89.967 Y125.901 E11.40794
G1 X89.353 Y126.053 E11.41983
G1 X88.462 Y126.133 E11.43666
G1 X78.462 Y126.133 E11.62477
G1 X77.831 Y126.093 E11.63666
G1 X77.21 Y125.974 E11.64855
G1 X76.61 Y125.777 E11.66043
G1 X76.038 Y125.506 E11.67234
G1 X75.506 Y125.166 E11.68422
G1 X75.021 Y124.76 E11.69611
G1 X74.591 Y124.297 E11.708
G1 X74.222 Y123.783 E11.7199
G1 X73.922 Y123.227 E11.73179
G1 X73.694 Y122.638 E11.74367
G1 X73.542 Y122.024 E11.75556
G1 X73.462 Y121.133 E11.77239
G1 X73.462 Y111.133 E11.9605
G1 X73.502 Y110.502 E11.97239
G1 X73.621 Y109.881 E11.98429
G1 X73.818 Y109.281 E11.99616
G1 X74.089 Y108.709 E12.00807
G1 X74.429 Y108.177 E12.01995
G1 X74.835 Y107.692 E12.03184
G1 X75.298 Y107.262 E12.04373
G1 X75.812 Y106.893 E12.05563
G1 X76.368 Y106.593 E12.06752
G0 F3600 X76.74 Y106.867
G1 F1800 X77.316 Y106.678 E12.07892
G1 X77.912 Y106.566 E12.09033
G1 X78.462 Y106.533 E12.10069
G1 X88.462 Y106.533 E12.2888
G1 X89.067 Y106.573 E12.3002
G1 X89.661 Y106.692 E12.3116
G1 X90.235 Y106.888 E12.32301
G1 X90.778 Y107.159 E12.33442
G1 X91.281 Y107.498 E12.34583
G1 X91.734 Y107.9 E12.35723
G1 X92.131 Y108.358 E12.36863
G1 X92.464 Y108.865 E12.38004
G1 X92.728 Y109.411 E12.39144
G1 X92.917 Y109.987 E12.40285
G1 X93.029 Y110.583 E12.41426
G1 X93.062 Y111.133 E12.42462
G1 X93.062 Y121.133 E12.61273
G1 X93.022 Y121.738 E12.62413
G1 X92.903 Y122.332 E12.63553
G1 X92.707 Y122.906 E12.64694
G1 X92.436 Y123.449 E12.65835
G1 X92.097 Y123.952 E12.66976
G1 X91.695 Y124.405 E12.68115
G1 X91.237 Y124.802 E12.69256
